src/lib/packages/icons/src/assets/filled/megaphone.svg

<svg width="24" height="24" viewBox="0 0 24 24" fill="none" xmlns="http://www.w3.org/2000/svg">
<path d="M21 3.92997V17.07C21 17.85 20.1 18.28 19.5 17.8L18.4699 16.9699C17.9869 16.5789 17.4639 16.2449 16.9129 15.9699C16.8129 15.9199 16.75 15.82 16.75 15.709V5.29197C16.75 5.17997 16.8129 5.08098 16.9129 5.03098C17.4629 4.75598 17.9869 4.42198 18.4699 4.03098L19.5 3.20096C20.1 2.71996 21 3.14997 21 3.92997ZM14.884 15.235C15.072 15.279 15.25 15.145 15.25 14.952V6.04697C15.25 5.85397 15.072 5.71995 14.884 5.76395C14.218 5.92095 13.5319 5.999 12.8399 5.999H7.69601C5.35001 5.999 3.25292 7.70898 3.02292 10.044C2.75892 12.727 4.85995 14.999 7.50095 14.999L9.95395 19.896C10.2929 20.572 10.984 20.999 11.74 20.999H13L12 14.999H12.8399C13.5329 15 14.218 15.078 14.884 15.235Z" fill="currentColor"/>
</svg>

<svg xmlns="http://www.w3.org/2000/svg" width="24" height="24" fill="none"><path fill="currentColor" d="M21 3.93v13.14c0 .78-.9 1.21-1.5.73l-1.03-.83a8.521 8.521 0 0 0-1.557-1 .291.291 0 0 1-.163-.261V5.292a.29.29 0 0 1 .163-.261 8.555 8.555 0 0 0 1.557-1l1.03-.83c.6-.481 1.5-.051 1.5.729Zm-6.116 11.305a.293.293 0 0 0 .366-.283V6.047a.293.293 0 0 0-.366-.283 8.908 8.908 0 0 1-2.044.235H7.696c-2.346 0-4.443 1.71-4.673 4.045A4.501 4.501 0 0 0 7.5 14.999l2.453 4.897a1.998 1.998 0 0 0 1.786 1.103H13l-1-6h.84a8.958 8.958 0 0 1 2.044.236Z"/></svg>
